X: 34
T:Untitled. HA.035
M:6/4
L:1/4
Q:100
S:Henry Atkinson's original MS,Hartburn,N'umberland,1694.
O:England
A:Hartburn,Northumberland
N:--Or Barlines.
H:1/4
Z:vmp.Chris Partington.Jan.2004
K:F
"No Key or time Sigs in MS"b|a>fe e/f/gc|f>ed c>BA|"min"B3d2f|!
e>dc d/e/fB|A>Bc G>AB|"min"A3"cr"F2||!
F|E2D E/F/ GG| A/B/ cc d/e/ ff| "min"e3 g2a|!
b>ag c'ag/a/|bfd gec|"min"f3F2|]
